arkscan/icons/deepcoin.svg

<svg width="200" height="200" viewBox="0 0 200 200" fill="none" xmlns="http://www.w3.org/2000/svg">
<path d="M90.1648 110.067V200H0.074707V110.067H90.1648ZM108.99 110.067L199.08 110.068C196.195 158.945 157.963 197.108 108.99 200V110.067ZM90.1648 0V89.9329H0.074707V0H90.1648ZM108.99 0C157.963 2.89249 196.195 41.0558 199.08 89.9329H108.99V0Z" fill="#FE7701"/>
</svg>

<svg width="200" height="200" fill="none" xmlns="http://www.w3.org/2000/svg"><path d="M90.165 110.067V200H.075v-89.933h90.09Zm18.825 0 90.09.001c-2.885 48.877-41.117 87.04-90.09 89.932v-89.933ZM90.165 0v89.933H.075V0h90.09Zm18.825 0c48.973 2.892 87.205 41.056 90.09 89.933h-90.09V0Z" fill="#FE7701"/></svg>
